X: 20863
M: 2/4
L: 1/16
K: F
V: 1 name="3"
c2 |\
f>ef>e f>ga>f | b>ab>a b>ag>f |\
e>fg>f e>dc>B | ABcB F2c2 |\
f>ef>e f>ga>f |
b>ab>a b>ag>f |\
e>fg>f e>cd>e | f2a2f2 H|]\
c2 |\
g>fe>f g2c2 | a>gf>g a2c2 |
b>ab>a a>ga>f | g>fe>d c4 |\
f>ed>c B>AG>F | d>cB>A G>FE>D |\


